SVG_Azure_Grouped/Security/WAF policy.svg

<?xml version="1.0" encoding="UTF-8" standalone="no"?>
<!-- Generated by Microsoft Visio, SVG Export WAF policy.svg Page-1 -->

<svg
   xmlns:dc="http://purl.org/dc/elements/1.1/"
   xmlns:cc="http://creativecommons.org/ns#"
   xmlns:rdf="http://www.w3.org/1999/02/22-rdf-syntax-ns#"
   xmlns:svg="http://www.w3.org/2000/svg"
   xmlns="http://www.w3.org/2000/svg"
   xmlns:sodipodi="http://sodipodi.sourceforge.net/DTD/sodipodi-0.dtd"
   xmlns:inkscape="http://www.inkscape.org/namespaces/inkscape"
   width="0.79912639in"
   height="0.81006819in"
   viewBox="0 0 57.537043 58.324834"
   xml:space="preserve"
   class="st9"
   version="1.1"
   id="svg121"
   sodipodi:docname="WAF policy.svg"
   style="font-size:12px;overflow:visible;color-interpolation-filters:sRGB;fill:none;fill-rule:evenodd;stroke-linecap:square;stroke-miterlimit:3"
   inkscape:version="0.92.5 (2060ec1f9f, 2020-04-08)"><metadata
   id="metadata125"><rdf:RDF><cc:Work
       rdf:about=""><dc:format>image/svg+xml</dc:format><dc:type
         rdf:resource="http://purl.org/dc/dcmitype/StillImage" /></cc:Work></rdf:RDF></metadata><sodipodi:namedview
   pagecolor="#ffffff"
   bordercolor="#666666"
   borderopacity="1"
   objecttolerance="10"
   gridtolerance="10"
   guidetolerance="10"
   inkscape:pageopacity="0"
   inkscape:pageshadow="2"
   inkscape:window-width="640"
   inkscape:window-height="480"
   id="namedview123"
   showgrid="false"
   inkscape:zoom="1.3995396"
   inkscape:cx="38.356339"
   inkscape:cy="38.959101"
   inkscape:window-x="0"
   inkscape:window-y="0"
   inkscape:window-maximized="0"
   inkscape:current-layer="svg121" />
	<style
   type="text/css"
   id="style2">
	<![CDATA[
		.st1 {fill:url(#grad7-6);stroke:none;stroke-linecap:butt;stroke-width:34}
		.st2 {fill:#83b9f9;stroke:none;stroke-linecap:butt;stroke-width:34}
		.st3 {fill:url(#grad0-12);stroke:none;stroke-linecap:butt;stroke-width:34}
		.st4 {fill:none;stroke:none;stroke-linecap:butt;stroke-width:34}
		.st5 {fill:#f2f2f2;stroke:none;stroke-linecap:butt;stroke-width:34}
		.st6 {fill:#821010;stroke:none;stroke-linecap:butt;stroke-width:34}
		.st7 {fill:#e62323;stroke:none;stroke-linecap:butt;stroke-width:34}
		.st8 {fill:#ff7381;stroke:none;stroke-linecap:butt;stroke-width:34}
		.st9 {fill:none;fill-rule:evenodd;font-size:12px;overflow:visible;stroke-linecap:square;stroke-miterlimit:3}
	]]>
	</style>

	<defs
   id="Patterns_And_Gradients">
		<radialGradient
   id="grad7-6"
   cx="-5.9772279"
   cy="74.939219"
   r="78.334164"
   gradientTransform="scale(0.98844351,1.0116916)"
   fx="-5.9772279"
   fy="74.939219"
   gradientUnits="userSpaceOnUse">
			<stop
   offset="0.185"
   stop-color="#5ea0ef"
   stop-opacity="1"
   id="stop4" />
			<stop
   offset="1"
   stop-color="#0078d4"
   stop-opacity="1"
   id="stop6" />
		</radialGradient>
		<linearGradient
   id="grad0-12"
   x1="0"
   y1="107.3053"
   x2="17.816317"
   y2="107.3053"
   gradientTransform="scale(0.98933695,1.010778)"
   gradientUnits="userSpaceOnUse">
			<stop
   offset="0"
   stop-color="#cccccc"
   stop-opacity="1"
   id="stop9" />
			<stop
   offset="0.125"
   stop-color="#d7d7d7"
   stop-opacity="1"
   id="stop11" />
			<stop
   offset="0.42"
   stop-color="#ebebeb"
   stop-opacity="1"
   id="stop13" />
			<stop
   offset="0.715"
   stop-color="#f8f8f8"
   stop-opacity="1"
   id="stop15" />
			<stop
   offset="1"
   stop-color="#fcfcfc"
   stop-opacity="1"
   id="stop17" />
		</linearGradient>
	</defs>
	<g
   id="g119"
   transform="translate(-34.006268,-34.129458)">
		<title
   id="title21">Page-1</title>
		<g
   id="group16689-1"
   transform="translate(37.6888,-34.0157)">
			<title
   id="title23">WAF policy.16689</title>
			<g
   id="group16690-2">
				<title
   id="title25">Icon-362Artboard 1</title>
				<g
   id="shape16691-3"
   transform="translate(2.22562,-7.67022)">
					<title
   id="title27">Sheet.16691</title>
					<path
   d="M 38.9,126.47 A 27.7843,28.3865 0 0 1 4.63,81.78 l 0.33,-0.33 a 27.8137,28.4165 0 0 1 33.94,45.02 z"
   class="st1"
   id="path29"
   inkscape:connector-curvature="0"
   style="fill:url(#grad7-6);stroke:none;stroke-width:34;stroke-linecap:butt" />
				</g>
				<g
   id="shape16692-7"
   transform="translate(0,-10.6716)">
					<title
   id="title32">Sheet.16692</title>
					<path
   d="M 2.61,112.8 A 84.2931,86.1199 -180 0 0 0,121.47 l 1.96,3 1.96,2 a 46.5107,47.5187 0 0 1 3.59,-11.67 8.255,8.4339 0 0 1 -4.9,-2 z M 5.88,97.46 A 44.5718,45.5377 0 0 1 3.59,87.79 24.6475,25.1817 -180 0 0 0,92.45 a 34.4301,35.1763 -180 0 0 1.96,8.01 8.9111,9.10421 0 0 1 3.92,-3 z"
   class="st2"
   id="path34"
   inkscape:connector-curvature="0"
   style="fill:#83b9f9;stroke:none;stroke-width:34;stroke-linecap:butt" />
				</g>
				<g
   id="shape16693-9"
   transform="translate(0,-22.0102)">
					<title
   id="title37">Sheet.16693</title>
					<ellipse
   cx="8.8131704"
   cy="117.466"
   rx="8.8131704"
   ry="9.0041704"
   class="st3"
   id="ellipse39"
   style="fill:url(#grad0-12);stroke:none;stroke-width:34;stroke-linecap:butt" />
				</g>
				<g
   id="shape16694-13"
   transform="translate(10.4452,-9.63074)">
					<title
   id="title42">Sheet.16694</title>
					<path
   d="m 11.42,121.76 a 6.87427,7.02325 0 0 1 1.64,-4.33 30.0301,30.6809 0 0 1 -8.16,-6.34 8.97964,9.17425 0 0 1 -4.9,2.67 62.6714,64.0296 -180 0 0 4.9,4.67 26.6843,27.2626 -180 0 0 6.52,4 z m 20.57,0.67 a 43.5077,44.4506 0 0 1 -9.14,-1 v 0.33 a 5.40541,5.52256 0 0 1 -1.63,4 42.3261,43.2434 -180 0 0 11.09,0.67 c 1.31,-1.33 2.62,-3 3.92,-4.34 a 17.2444,17.6182 0 0 1 -4.24,0.34 z"
   class="st2"
   id="path44"
   inkscape:connector-curvature="0"
   style="fill:#83b9f9;stroke:none;stroke-width:34;stroke-linecap:butt" />
				</g>
				<g
   id="shape16695-15"
   transform="translate(21.8697,-8.33719)">
					<title
   id="title47">Sheet.16695</title>
					<ellipse
   cx="5.8754501"
   cy="120.467"
   rx="5.8754501"
   ry="6.00278"
   class="st4"
   id="ellipse49"
   style="fill:none;stroke:none;stroke-width:34;stroke-linecap:butt" />
				</g>
				<g
   id="shape16696-17"
   transform="translate(12.0773,-30.3474)">
					<title
   id="title52">Sheet.16696</title>
					<path
   d="m 14.04,113.8 a 43.9614,44.9141 0 0 1 19.25,-4.67 21.9676,22.4437 -180 0 0 -4.89,-4.67 50.0555,51.1403 -180 0 0 -15.34,3.67 30.1933,30.8476 -180 0 0 -3.27,1.67 61.1144,62.4389 0 0 1 -6.53,-9.68 6.20186,6.33627 -180 0 0 -2.93,1 68.9484,70.4426 -180 0 0 6.85,10.34 32.1224,32.8185 -180 0 0 -7.18,5.67 9.30279,9.5044 0 0 1 4.24,3.67 29.2499,29.8838 0 0 1 6.21,-5 72.9959,74.5779 -180 0 0 12.07,10.67 6.77309,6.91987 0 0 1 1.96,-3.34 91.0433,93.0164 0 0 1 -10.44,-9.33 z"
   class="st2"
   id="path54"
   inkscape:connector-curvature="0"
   style="fill:#83b9f9;stroke:none;stroke-width:34;stroke-linecap:butt" />
				</g>
				<g
   id="shape16697-19"
   transform="translate(34.5999,-22.6772)">
					<title
   id="title57">Sheet.16697</title>
					<ellipse
   cx="6.20186"
   cy="120.134"
   rx="6.20186"
   ry="6.3362699"
   class="st5"
   id="ellipse59"
   style="fill:#f2f2f2;stroke:none;stroke-width:34;stroke-linecap:butt" />
				</g>
				<g
   id="shape16698-21"
   transform="translate(44.7187,-21.3432)">
					<title
   id="title62">Sheet.16698</title>
					<path
   d="M 6.53,123.13 C 6.2,122.8 5.88,122.8 5.55,122.47 5.22,122.13 4.9,122.13 4.57,121.8 H 4.24 L 3.26,121.13 H 2.94 l -0.98,-0.66 a 4.75258,4.85558 0 0 1 -1.96,3 c 0.33,0.33 0.65,0.33 1.31,0.67 h 0.32 c 0.33,0.33 0.65,0.33 0.98,0.66 0.98,0.67 1.96,1 2.94,1.67 0.33,-1 0.65,-2.33 0.98,-3.34 z"
   class="st2"
   id="path64"
   inkscape:connector-curvature="0"
   style="fill:#83b9f9;stroke:none;stroke-width:34;stroke-linecap:butt" />
				</g>
				<g
   id="shape16699-23"
   transform="translate(0,-22.0102)">
					<title
   id="title67">Sheet.16699</title>
					<ellipse
   cx="8.8131704"
   cy="117.466"
   rx="8.8131704"
   ry="9.0041704"
   class="st5"
   id="ellipse69"
   style="fill:#f2f2f2;stroke:none;stroke-width:34;stroke-linecap:butt" />
				</g>
				<g
   id="shape16700-25"
   transform="translate(21.8697,-8.33719)">
					<title
   id="title72">Sheet.16700</title>
					<ellipse
   cx="5.8754501"
   cy="120.467"
   rx="5.8754501"
   ry="6.00278"
   class="st5"
   id="ellipse74"
   style="fill:#f2f2f2;stroke:none;stroke-width:34;stroke-linecap:butt" />
				</g>
				<g
   id="shape16701-27"
   transform="translate(11.4245)">
					<title
   id="title77">Sheet.16701</title>
					<path
   d="M 1.31,102.13 H 40.8 c 0.65,0 1.63,0.66 1.63,1.33 v 21.34 a 1.74958,1.78749 0 0 1 -1.63,1.67 H 1.31 A 1.49497,1.52737 0 0 1 0,124.8 v -21.01 a 1.49497,1.52737 0 0 1 1.31,-1.66 z"
   class="st6"
   id="path79"
   inkscape:connector-curvature="0"
   style="fill:#821010;stroke:none;stroke-width:34;stroke-linecap:butt" />
				</g>
				<g
   id="shape16702-29"
   transform="translate(13.0565,-16.3409)">
					<title
   id="title82">Sheet.16702</title>
					<rect
   x="0"
   y="121.134"
   width="11.7509"
   height="5.3358002"
   class="st7"
   id="rect84"
   style="fill:#e62323;stroke:none;stroke-width:34;stroke-linecap:butt" />
				</g>
				<g
   id="shape16703-31"
   transform="translate(26.7659,-16.3409)">
					<title
   id="title87">Sheet.16703</title>
					<rect
   x="0"
   y="121.134"
   width="11.7509"
   height="5.3358002"
   class="st8"
   id="rect89"
   style="fill:#ff7381;stroke:none;stroke-width:34;stroke-linecap:butt" />
				</g>
				<g
   id="shape16704-33"
   transform="translate(13.0565,-9.33766)">
					<title
   id="title92">Sheet.16704</title>
					<path
   d="m 27.09,114.13 h 11.75 v 5.34 H 27.09 Z m -27.09,7 h 4.9 v 5.34 H 0 Z"
   class="st7"
   id="path94"
   inkscape:connector-curvature="0"
   style="fill:#e62323;stroke:none;stroke-width:34;stroke-linecap:butt" />
				</g>
				<g
   id="shape16705-35"
   transform="translate(19.9112,-9.33766)">
					<title
   id="title97">Sheet.16705</title>
					<path
   d="m 27.09,121.13 h 4.9 v 5.34 h -4.9 z m -27.09,0 h 11.75 v 5.34 H 0 Z"
   class="st8"
   id="path99"
   inkscape:connector-curvature="0"
   style="fill:#ff7381;stroke:none;stroke-width:34;stroke-linecap:butt" />
				</g>
				<g
   id="shape16706-37"
   transform="translate(13.0565,-2.33441)">
					<title
   id="title102">Sheet.16706</title>
					<path
   d="m 20.24,114.13 h 11.75 v 5.34 H 20.24 Z m -20.24,7 h 11.75 v 5.34 H 0 Z"
   class="st7"
   id="path104"
   inkscape:connector-curvature="0"
   style="fill:#e62323;stroke:none;stroke-width:34;stroke-linecap:butt" />
				</g>
				<g
   id="shape16707-39"
   transform="translate(26.7659,-2.33441)">
					<title
   id="title107">Sheet.16707</title>
					<rect
   x="0"
   y="121.134"
   width="11.7509"
   height="5.3358002"
   class="st8"
   id="rect109"
   style="fill:#ff7381;stroke:none;stroke-width:34;stroke-linecap:butt" />
				</g>
				<g
   id="shape16708-41"
   transform="translate(40.1489,-2.33441)">
					<title
   id="title112">Sheet.16708</title>
					<rect
   x="0"
   y="121.134"
   width="11.7509"
   height="5.3358002"
   class="st7"
   id="rect114"
   style="fill:#e62323;stroke:none;stroke-width:34;stroke-linecap:butt" />
				</g>
			</g>
		</g>
	</g>
</svg>

<?xml version="1.0" encoding="UTF-8" standalone="no"?>
<!DOCTYPE svg PUBLIC "-//W3C//DTD SVG 1.1//EN" "http://www.w3.org/Graphics/SVG/1.1/DTD/svg11.dtd">
<!-- Generated by Microsoft Visio, SVG Export WAF policy.svg Page-1 -->
<svg xmlns="http://www.w3.org/2000/svg" xmlns:xlink="http://www.w3.org/1999/xlink" xmlns:ev="http://www.w3.org/2001/xml-events"
		width="1.74371in" height="1.75653in" viewBox="0 0 125.547 126.47" xml:space="preserve" color-interpolation-filters="sRGB"
		class="st9">
	<style type="text/css">
	<![CDATA[
		.st1 {fill:url(#grad7-6);stroke:none;stroke-linecap:butt;stroke-width:34}
		.st2 {fill:#83b9f9;stroke:none;stroke-linecap:butt;stroke-width:34}
		.st3 {fill:url(#grad0-12);stroke:none;stroke-linecap:butt;stroke-width:34}
		.st4 {fill:none;stroke:none;stroke-linecap:butt;stroke-width:34}
		.st5 {fill:#f2f2f2;stroke:none;stroke-linecap:butt;stroke-width:34}
		.st6 {fill:#821010;stroke:none;stroke-linecap:butt;stroke-width:34}
		.st7 {fill:#e62323;stroke:none;stroke-linecap:butt;stroke-width:34}
		.st8 {fill:#ff7381;stroke:none;stroke-linecap:butt;stroke-width:34}
		.st9 {fill:none;fill-rule:evenodd;font-size:12px;overflow:visible;stroke-linecap:square;stroke-miterlimit:3}
	]]>
	</style>

	<defs id="Patterns_And_Gradients">
		<radialGradient id="grad7-6" cx="0" cy="0" r="1.4">
			<stop offset="0.185" stop-color="#5ea0ef" stop-opacity="1"/>
			<stop offset="1" stop-color="#0078d4" stop-opacity="1"/>
		</radialGradient>
		<linearGradient id="grad0-12" x1="0" y1="0" x2="1" y2="0" gradientTransform="rotate(-90.44863169121 0.5 0.5)">
			<stop offset="0" stop-color="#cccccc" stop-opacity="1"/>
			<stop offset="0.125" stop-color="#d7d7d7" stop-opacity="1"/>
			<stop offset="0.42" stop-color="#ebebeb" stop-opacity="1"/>
			<stop offset="0.715" stop-color="#f8f8f8" stop-opacity="1"/>
			<stop offset="1" stop-color="#fcfcfc" stop-opacity="1"/>
		</linearGradient>
	</defs>
	<g>
		<title>Page-1</title>
		<g id="group16306-1" transform="translate(37.6888,-34.0157)">
			<title>WAF policy.16306</title>
			<g id="group16307-2">
				<title>Icon-362Artboard 1</title>
				<g id="shape16308-3" transform="translate(2.22562,-7.67022)">
					<title>Sheet.16308</title>
					<path d="M38.9 126.47 A27.7843 28.3865 0 0 1 4.63 81.78 L4.96 81.45 A27.8137 28.4165 0 0 1 38.9 126.47 Z"
							class="st1"/>
				</g>
				<g id="shape16309-7" transform="translate(0,-10.6716)">
					<title>Sheet.16309</title>
					<path d="M2.61 112.8 A84.2931 86.1199 -180 0 0 0 121.47 L1.96 124.47 L3.92 126.47 A46.5107 47.5187 0 0 1 7.51
								 114.8 A8.255 8.4339 0 0 1 2.61 112.8 ZM5.88 97.46 A44.5718 45.5377 0 0 1 3.59 87.79 A24.6475 25.1817
								 -180 0 0 0 92.45 A34.4301 35.1763 -180 0 0 1.96 100.46 A8.9111 9.10421 0 0 1 5.88 97.46 Z"
							class="st2"/>
				</g>
				<g id="shape16310-9" transform="translate(-2.65787E-13,-22.0102)">
					<title>Sheet.16310</title>
					<ellipse cx="8.81317" cy="117.466" rx="8.81317" ry="9.00417" class="st3"/>
				</g>
				<g id="shape16311-13" transform="translate(10.4452,-9.63074)">
					<title>Sheet.16311</title>
					<path d="M11.42 121.76 A6.87427 7.02325 0 0 1 13.06 117.43 A30.0301 30.6809 0 0 1 4.9 111.09 A8.97964 9.17425
								 0 0 1 0 113.76 A62.6714 64.0296 -180 0 0 4.9 118.43 A26.6843 27.2626 -180 0 0 11.42 122.43 L11.42
								 121.76 ZM31.99 122.43 A43.5077 44.4506 0 0 1 22.85 121.43 L22.85 121.76 A5.40541 5.52256 0 0 1 21.22
								 125.76 A42.3261 43.2434 -180 0 0 32.31 126.43 C33.62 125.1 34.93 123.43 36.23 122.09 A17.2444 17.6182
								 0 0 1 31.99 122.43 Z" class="st2"/>
				</g>
				<g id="shape16312-15" transform="translate(21.8697,-8.33719)">
					<title>Sheet.16312</title>
					<ellipse cx="5.87545" cy="120.467" rx="5.87545" ry="6.00278" class="st4"/>
				</g>
				<g id="shape16313-17" transform="translate(12.0773,-30.3474)">
					<title>Sheet.16313</title>
					<path d="M14.04 113.8 A43.9614 44.9141 0 0 1 33.29 109.13 A21.9676 22.4437 -180 0 0 28.4 104.46 A50.0555 51.1403
								 -180 0 0 13.06 108.13 A30.1933 30.8476 -180 0 0 9.79 109.8 A61.1144 62.4389 0 0 1 3.26 100.12 A6.20186
								 6.33627 -180 0 0 0.33 101.12 A68.9484 70.4426 -180 0 0 7.18 111.46 A32.1224 32.8185 -180 0 0 -0
								 117.13 A9.30279 9.5044 0 0 1 4.24 120.8 A29.2499 29.8838 0 0 1 10.45 115.8 A72.9959 74.5779 -180
								 0 0 22.52 126.47 A6.77309 6.91987 0 0 1 24.48 123.13 A91.0433 93.0164 0 0 1 14.04 113.8 Z"
							class="st2"/>
				</g>
				<g id="shape16314-19" transform="translate(34.5999,-22.6772)">
					<title>Sheet.16314</title>
					<ellipse cx="6.20186" cy="120.134" rx="6.20186" ry="6.33627" class="st5"/>
				</g>
				<g id="shape16315-21" transform="translate(44.7187,-21.3432)">
					<title>Sheet.16315</title>
					<path d="M6.53 123.13 C6.2 122.8 5.88 122.8 5.55 122.47 C5.22 122.13 4.9 122.13 4.57 121.8 L4.24 121.8 L3.26
								 121.13 L2.94 121.13 L1.96 120.47 A4.75258 4.85558 0 0 1 0 123.47 C0.33 123.8 0.65 123.8 1.31 124.14
								 L1.63 124.14 C1.96 124.47 2.28 124.47 2.61 124.8 C3.59 125.47 4.57 125.8 5.55 126.47 C5.88 125.47
								 6.2 124.14 6.53 123.13 Z" class="st2"/>
				</g>
				<g id="shape16316-23" transform="translate(-2.65787E-13,-22.0102)">
					<title>Sheet.16316</title>
					<ellipse cx="8.81317" cy="117.466" rx="8.81317" ry="9.00417" class="st5"/>
				</g>
				<g id="shape16317-25" transform="translate(21.8697,-8.33719)">
					<title>Sheet.16317</title>
					<ellipse cx="5.87545" cy="120.467" rx="5.87545" ry="6.00278" class="st5"/>
				</g>
				<g id="shape16318-27" transform="translate(11.4245,0)">
					<title>Sheet.16318</title>
					<path d="M1.31 102.13 L40.8 102.13 C41.45 102.13 42.43 102.79 42.43 103.46 L42.43 124.8 A1.74958 1.78749 0 0
								 1 40.8 126.47 L1.31 126.47 A1.49497 1.52737 0 0 1 0 124.8 L0 103.79 A1.49497 1.52737 0 0 1 1.31
								 102.13 Z" class="st6"/>
				</g>
				<g id="shape16319-29" transform="translate(13.0565,-16.3409)">
					<title>Sheet.16319</title>
					<rect x="0" y="121.134" width="11.7509" height="5.3358" class="st7"/>
				</g>
				<g id="shape16320-31" transform="translate(26.7659,-16.3409)">
					<title>Sheet.16320</title>
					<rect x="0" y="121.134" width="11.7509" height="5.3358" class="st8"/>
				</g>
				<g id="shape16321-33" transform="translate(13.0565,-9.33766)">
					<title>Sheet.16321</title>
					<path d="M27.09 114.13 L38.84 114.13 L38.84 119.47 L27.09 119.47 L27.09 114.13 ZM0 121.13 L4.9 121.13 L4.9 126.47
								 L0 126.47 L0 121.13 Z" class="st7"/>
				</g>
				<g id="shape16322-35" transform="translate(19.9112,-9.33766)">
					<title>Sheet.16322</title>
					<path d="M27.09 121.13 L31.99 121.13 L31.99 126.47 L27.09 126.47 L27.09 121.13 ZM0 121.13 L11.75 121.13 L11.75
								 126.47 L0 126.47 L0 121.13 Z" class="st8"/>
				</g>
				<g id="shape16323-37" transform="translate(13.0565,-2.33441)">
					<title>Sheet.16323</title>
					<path d="M20.24 114.13 L31.99 114.13 L31.99 119.47 L20.24 119.47 L20.24 114.13 ZM0 121.13 L11.75 121.13 L11.75
								 126.47 L0 126.47 L0 121.13 Z" class="st7"/>
				</g>
				<g id="shape16324-39" transform="translate(26.7659,-2.33441)">
					<title>Sheet.16324</title>
					<rect x="0" y="121.134" width="11.7509" height="5.3358" class="st8"/>
				</g>
				<g id="shape16325-41" transform="translate(40.1489,-2.33441)">
					<title>Sheet.16325</title>
					<rect x="0" y="121.134" width="11.7509" height="5.3358" class="st7"/>
				</g>
			</g>
		</g>
	</g>
</svg>
